static/img/logos/pnpm-standard.svg

<svg width="226" height="160" viewBox="0 0 226 160" fill="none" xmlns="http://www.w3.org/2000/svg">
<path d="M221.478 49.7561H172.698V0.975586H221.478V49.7561Z" fill="#F9AD00"/>
<path d="M167.81 49.7561H119.029V0.975586H167.81V49.7561Z" fill="#F9AD00"/>
<path d="M114.151 49.7561H65.3706V0.975586H114.151V49.7561Z" fill="#F9AD00"/>
<path d="M221.478 103.415H172.698V54.634H221.478V103.415Z" fill="#F9AD00"/>
<path d="M167.81 103.415H119.029V54.634H167.81V103.415Z" fill="#4E4E4E"/>
<path d="M167.81 157.073H119.029V108.293H167.81V157.073Z" fill="#4E4E4E"/>
<path d="M221.478 157.073H172.698V108.293H221.478V157.073Z" fill="#4E4E4E"/>
<path d="M114.151 157.073H65.3706V108.293H114.151V157.073Z" fill="#4E4E4E"/>
<path d="M13.0412 68.3491C14.6803 68.3491 16.1964 68.5677 17.5895 69.0048C19.01 69.4145 20.2256 70.0565 21.2364 70.9306C22.2471 71.8048 23.0393 72.9111 23.613 74.2496C24.1866 75.5609 24.4734 77.1316 24.4734 78.9618C24.4734 80.7101 24.2276 82.2399 23.7359 83.5511C23.2442 84.8623 22.5476 85.9687 21.6461 86.8701C20.7447 87.7443 19.652 88.3999 18.3681 88.837C17.1115 89.274 15.7047 89.4926 14.1476 89.4926C12.9729 89.4926 11.8803 89.315 10.8695 88.9599V95.7618C10.5964 95.8438 10.1593 95.9257 9.55832 96.0077C8.95734 96.117 8.34271 96.1716 7.71441 96.1716C7.11344 96.1716 6.5671 96.1306 6.07539 96.0487C5.611 95.9667 5.2149 95.8028 4.8871 95.557C4.55929 95.3111 4.31344 94.9696 4.14953 94.5326C3.98563 94.1228 3.90368 93.5765 3.90368 92.8935V73.2252C3.90368 72.4877 4.05392 71.8867 4.35441 71.4223C4.68222 70.9579 5.11929 70.5345 5.66563 70.1521C6.51246 69.6057 7.56417 69.1687 8.82075 68.8409C10.0773 68.5131 11.4842 68.3491 13.0412 68.3491ZM13.1232 84.0018C15.9369 84.0018 17.3437 82.3218 17.3437 78.9618C17.3437 77.2135 16.9886 75.916 16.2783 75.0691C15.5954 74.2223 14.5983 73.7989 13.2871 73.7989C12.7681 73.7989 12.3037 73.8672 11.8939 74.0038C11.4842 74.1131 11.129 74.2496 10.8286 74.4135V83.4282C11.1564 83.5921 11.5115 83.7287 11.8939 83.8379C12.2764 83.9472 12.6861 84.0018 13.1232 84.0018ZM40.4933 76.2574C40.4933 75.4106 40.2474 74.796 39.7557 74.4135C39.2913 74.0038 38.6494 73.7989 37.8299 73.7989C37.2835 73.7989 36.7372 73.8672 36.1909 74.0038C35.6718 74.1404 35.2211 74.3452 34.8387 74.6184V88.837C34.5655 88.9189 34.1284 89.0009 33.5274 89.0828C32.9538 89.1648 32.3528 89.2057 31.7245 89.2057C31.1235 89.2057 30.5772 89.1648 30.0855 89.0828C29.6211 89.0009 29.225 88.837 28.8972 88.5911C28.5694 88.3452 28.3099 88.0174 28.1187 87.6077C27.9548 87.1706 27.8728 86.6106 27.8728 85.9277V73.635C27.8728 72.8974 28.0231 72.2965 28.3235 71.8321C28.6513 71.3677 29.0884 70.9443 29.6348 70.5618C30.5635 69.9062 31.7245 69.3735 33.1177 68.9638C34.5382 68.554 36.1089 68.3491 37.8299 68.3491C40.9167 68.3491 43.2933 69.0321 44.9596 70.3979C46.626 71.7365 47.4592 73.6077 47.4592 76.0116V88.837C47.186 88.9189 46.7489 89.0009 46.1479 89.0828C45.5743 89.1648 44.9733 89.2057 44.345 89.2057C43.744 89.2057 43.1977 89.1648 42.706 89.0828C42.2416 89.0009 41.8455 88.837 41.5177 88.5911C41.1899 88.3452 40.9304 88.0174 40.7392 87.6077C40.5753 87.1706 40.4933 86.6106 40.4933 85.9277V76.2574ZM60.8995 68.3491C62.5385 68.3491 64.0546 68.5677 65.4478 69.0048C66.8683 69.4145 68.0839 70.0565 69.0946 70.9306C70.1053 71.8048 70.8975 72.9111 71.4712 74.2496C72.0448 75.5609 72.3317 77.1316 72.3317 78.9618C72.3317 80.7101 72.0858 82.2399 71.5941 83.5511C71.1024 84.8623 70.4058 85.9687 69.5044 86.8701C68.6029 87.7443 67.5102 88.3999 66.2263 88.837C64.9697 89.274 63.5629 89.4926 62.0058 89.4926C60.8312 89.4926 59.7385 89.315 58.7278 88.9599V95.7618C58.4546 95.8438 58.0175 95.9257 57.4165 96.0077C56.8156 96.117 56.2009 96.1716 55.5726 96.1716C54.9717 96.1716 54.4253 96.1306 53.9336 96.0487C53.4692 95.9667 53.0731 95.8028 52.7453 95.557C52.4175 95.3111 52.1717 94.9696 52.0078 94.5326C51.8439 94.1228 51.7619 93.5765 51.7619 92.8935V73.2252C51.7619 72.4877 51.9122 71.8867 52.2126 71.4223C52.5404 70.9579 52.9775 70.5345 53.5239 70.1521C54.3707 69.6057 55.4224 69.1687 56.679 68.8409C57.9356 68.5131 59.3424 68.3491 60.8995 68.3491ZM60.9814 84.0018C63.7951 84.0018 65.2019 82.3218 65.2019 78.9618C65.2019 77.2135 64.8468 75.916 64.1365 75.0691C63.4536 74.2223 62.4565 73.7989 61.1453 73.7989C60.6263 73.7989 60.1619 73.8672 59.7522 74.0038C59.3424 74.1131 58.9873 74.2496 58.6868 74.4135V83.4282C59.0146 83.5921 59.3697 83.7287 59.7522 83.8379C60.1346 83.9472 60.5444 84.0018 60.9814 84.0018ZM85.2784 68.3491C86.3984 68.3491 87.491 68.5131 88.5564 68.8409C89.6491 69.1413 90.5915 69.6057 91.3837 70.234C92.2032 69.6877 93.1184 69.237 94.1291 68.8818C95.1671 68.5267 96.4101 68.3491 97.8579 68.3491C98.8959 68.3491 99.9067 68.4857 100.89 68.7589C101.901 69.0321 102.789 69.4691 103.553 70.0701C104.346 70.6438 104.974 71.4223 105.438 72.4057C105.903 73.3618 106.135 74.5365 106.135 75.9296V88.837C105.862 88.9189 105.425 89.0009 104.824 89.0828C104.25 89.1648 103.649 89.2057 103.021 89.2057C102.42 89.2057 101.873 89.1648 101.382 89.0828C100.917 89.0009 100.521 88.837 100.193 88.5911C99.8657 88.3452 99.6062 88.0174 99.4149 87.6077C99.251 87.1706 99.1691 86.6106 99.1691 85.9277V76.1345C99.1691 75.315 98.9369 74.7277 98.4725 74.3726C98.0081 73.9901 97.3798 73.7989 96.5876 73.7989C96.2052 73.7989 95.7954 73.8945 95.3584 74.0857C94.9213 74.2496 94.5935 74.4272 94.3749 74.6184C94.4023 74.7277 94.4159 74.837 94.4159 74.9462C94.4159 75.0282 94.4159 75.1101 94.4159 75.1921V88.837C94.1154 88.9189 93.6647 89.0009 93.0637 89.0828C92.4901 89.1648 91.9028 89.2057 91.3018 89.2057C90.7008 89.2057 90.1545 89.1648 89.6628 89.0828C89.1984 89.0009 88.8023 88.837 88.4745 88.5911C88.1467 88.3452 87.8871 88.0174 87.6959 87.6077C87.532 87.1706 87.4501 86.6106 87.4501 85.9277V76.1345C87.4501 75.315 87.1906 74.7277 86.6715 74.3726C86.1798 73.9901 85.5788 73.7989 84.8686 73.7989C84.3769 73.7989 83.9535 73.8809 83.5984 74.0448C83.2432 74.1813 82.9428 74.3179 82.6969 74.4545V88.837C82.4237 88.9189 81.9867 89.0009 81.3857 89.0828C80.812 89.1648 80.211 89.2057 79.5828 89.2057C78.9818 89.2057 78.4354 89.1648 77.9437 89.0828C77.4793 89.0009 77.0832 88.837 76.7554 88.5911C76.4276 88.3452 76.1681 88.0174 75.9769 87.6077C75.813 87.1706 75.731 86.6106 75.731 85.9277V73.5531C75.731 72.8155 75.8813 72.2282 76.1818 71.7911C76.5096 71.354 76.9467 70.9443 77.493 70.5618C78.4218 69.9062 79.5691 69.3735 80.9349 68.9638C82.3281 68.554 83.7759 68.3491 85.2784 68.3491Z" fill="#4E4E4E"/>
</svg>

<svg xmlns="http://www.w3.org/2000/svg" width="226" height="160" fill="none"><path fill="#F9AD00" d="M221.478 49.756h-48.78V.976h48.78v48.78ZM167.81 49.756h-48.781V.976h48.781v48.78ZM114.151 49.756h-48.78V.976h48.78v48.78ZM221.478 103.415h-48.78V54.634h48.78v48.781Z"/><path fill="#4E4E4E" d="M167.81 103.415h-48.781V54.634h48.781v48.781ZM167.81 157.073h-48.781v-48.78h48.781v48.78ZM221.478 157.073h-48.78v-48.78h48.78v48.78ZM114.151 157.073h-48.78v-48.78h48.78v48.78ZM13.041 68.35c1.64 0 3.155.218 4.549.655 1.42.41 2.636 1.052 3.646 1.926 1.011.874 1.803 1.98 2.377 3.319.574 1.31.86 2.882.86 4.712 0 1.748-.245 3.278-.737 4.59-.492 1.31-1.188 2.417-2.09 3.318-.901.874-1.994 1.53-3.278 1.967-1.256.437-2.663.656-4.22.656-1.175 0-2.268-.178-3.278-.533v6.802c-.274.082-.71.164-1.312.246-.6.109-1.215.164-1.844.164-.6 0-1.147-.041-1.639-.123a2.742 2.742 0 0 1-1.188-.492c-.328-.246-.574-.587-.737-1.024-.164-.41-.246-.957-.246-1.64V73.226c0-.737.15-1.338.45-1.803.328-.464.765-.888 1.312-1.27.846-.546 1.898-.983 3.155-1.311 1.256-.328 2.663-.492 4.22-.492Zm.082 15.652c2.814 0 4.22-1.68 4.22-5.04 0-1.749-.354-3.046-1.065-3.893-.683-.847-1.68-1.27-2.99-1.27-.52 0-.984.068-1.394.205-.41.11-.765.246-1.065.41v9.014c.327.164.682.3 1.065.41.382.11.792.164 1.23.164Zm27.37-7.745c0-.846-.246-1.461-.737-1.844-.465-.41-1.107-.614-1.926-.614-.547 0-1.093.068-1.64.205-.518.136-.969.341-1.351.614v14.219c-.273.082-.71.164-1.312.246-.573.082-1.174.123-1.803.123-.6 0-1.147-.041-1.639-.123a2.74 2.74 0 0 1-1.188-.492 2.55 2.55 0 0 1-.778-.983c-.164-.437-.246-.997-.246-1.68V73.635c0-.738.15-1.339.45-1.803.328-.464.765-.888 1.312-1.27.928-.656 2.09-1.188 3.483-1.598 1.42-.41 2.99-.615 4.712-.615 3.087 0 5.463.683 7.13 2.049 1.666 1.339 2.5 3.21 2.5 5.614v12.825c-.274.082-.711.164-1.312.246-.574.082-1.175.123-1.803.123-.601 0-1.147-.041-1.639-.123a2.74 2.74 0 0 1-1.188-.492 2.55 2.55 0 0 1-.779-.983c-.164-.437-.246-.997-.246-1.68v-9.67ZM60.9 68.35c1.639 0 3.155.219 4.548.656 1.42.41 2.636 1.052 3.647 1.926 1.01.874 1.802 1.98 2.376 3.319.574 1.31.86 2.882.86 4.712 0 1.748-.245 3.278-.737 4.59-.492 1.31-1.188 2.417-2.09 3.318-.901.874-1.994 1.53-3.278 1.967-1.256.437-2.663.656-4.22.656-1.175 0-2.267-.178-3.278-.533v6.802c-.273.082-.71.164-1.312.246-.6.109-1.215.164-1.843.164-.601 0-1.148-.041-1.64-.123a2.742 2.742 0 0 1-1.188-.492c-.328-.246-.573-.587-.737-1.024-.164-.41-.246-.957-.246-1.64V73.226c0-.737.15-1.338.45-1.803.328-.464.765-.888 1.312-1.27.847-.546 1.898-.983 3.155-1.311 1.257-.328 2.663-.492 4.22-.492Zm.081 15.653c2.814 0 4.22-1.68 4.22-5.04 0-1.749-.354-3.046-1.064-3.893-.683-.847-1.68-1.27-2.992-1.27-.519 0-.983.068-1.393.205-.41.11-.765.246-1.065.41v9.014c.328.164.683.3 1.065.41.383.11.792.164 1.23.164Zm24.297-15.653c1.12 0 2.213.164 3.278.492 1.093.3 2.035.765 2.828 1.393.82-.546 1.734-.997 2.745-1.352 1.038-.355 2.281-.533 3.729-.533 1.038 0 2.049.137 3.032.41 1.011.273 1.899.71 2.663 1.311.793.574 1.421 1.352 1.885 2.336.465.956.697 2.13.697 3.524v12.907c-.273.082-.71.164-1.311.246-.574.082-1.175.123-1.803.123a10 10 0 0 1-1.639-.123 2.74 2.74 0 0 1-1.189-.492 2.554 2.554 0 0 1-.778-.983c-.164-.437-.246-.997-.246-1.68v-9.793c0-.82-.232-1.407-.697-1.762-.464-.383-1.092-.574-1.884-.574-.383 0-.793.095-1.23.287-.437.164-.764.341-.983.532.027.11.04.219.04.328v13.891c-.3.082-.75.164-1.351.246-.574.082-1.161.123-1.762.123s-1.148-.041-1.64-.123a2.74 2.74 0 0 1-1.188-.492 2.55 2.55 0 0 1-.778-.983c-.164-.437-.246-.997-.246-1.68v-9.793c0-.82-.26-1.407-.779-1.762-.491-.383-1.092-.574-1.802-.574-.492 0-.915.082-1.27.246a7.18 7.18 0 0 0-.902.41v14.382c-.273.082-.71.164-1.311.246a12.74 12.74 0 0 1-1.803.123c-.601 0-1.148-.041-1.64-.123a2.74 2.74 0 0 1-1.188-.492 2.55 2.55 0 0 1-.778-.983c-.164-.437-.246-.997-.246-1.68V73.553c0-.737.15-1.325.45-1.762.329-.437.766-.847 1.312-1.23.929-.655 2.076-1.188 3.442-1.597a15.312 15.312 0 0 1 4.343-.615Z"/></svg>
